!!!ONR: No. 47
!! From Harold Courlander, "Haiti Singing"
!! Chapel Hill: University of North Carolina Press, 1939
!! Copyright University of North Carolina Press
!!!ENC: D. Huron
**kern
*clefG2
*k[]
*M2/4
=1-
4r
8r
8b
=
8ee
8dd
8ee
16dd
16dd
=
8ee
8dd
8g
8b
=
8dd
[4.dd
=
4.dd]
8gg
=
8bb
8gg
8.aa
16gg
=
8aa
8gg
8dd
8ee
=
8gg
[4.gg
=
4.gg]
8b
=
8ee
8dd
8ee
16dd
16dd
=
8ee
8dd
8.g
16b
=
8dd
[4.dd
=
4.dd]
8gg
=
8bb
8gg
8.aa
16gg
=
8aa
8gg
8.dd
16ee
=
4gg
[4gg
=
2gg]
==
*-
